raw/symbols/krw.svg

<svg width="42" height="42" viewBox="0 0 42 42" fill="none" xmlns="http://www.w3.org/2000/svg">
<g clip-path="url(#clip0_7674_311010)">
<mask id="mask0_7674_311010" style="mask-type:alpha" maskUnits="userSpaceOnUse" x="0" y="0" width="42" height="42">
<circle cx="21" cy="21" r="21" fill="#D9D9D9"/>
</mask>
<g mask="url(#mask0_7674_311010)">
<path d="M52.5 0H-10.5V42H52.5V0Z" fill="#FF0000"/>
<path d="M17.0625 7.875H24.9375V17.0625H34.125V24.9375H24.9375V34.125H17.0625V24.9375H7.875V17.0625H17.0625V7.875Z" fill="white"/>
<path d="M46 -1H-4V42H46V-1Z" fill="white"/>
<path fill-rule="evenodd" clip-rule="evenodd" d="M14.0165 16.4236C15.2428 14.5848 17.1492 13.3086 19.3165 12.8755C21.4838 12.4424 23.7344 12.888 25.5731 14.1143C27.4118 15.3406 28.6881 17.2471 29.1211 19.4143C29.5542 21.5816 29.1086 23.8322 27.8823 25.6709" fill="#C60C30"/>
<path fill-rule="evenodd" clip-rule="evenodd" d="M27.9698 25.5579C26.7436 27.3966 24.8371 28.6729 22.6698 29.106C20.5025 29.539 18.252 29.0934 16.4133 27.8671C14.5745 26.6409 13.2982 24.7344 12.8652 22.5671C12.4321 20.3998 12.8777 18.1493 14.104 16.3105" fill="#003478"/>
<path fill-rule="evenodd" clip-rule="evenodd" d="M20.9435 21.0345C21.5567 20.1152 22.5099 19.477 23.5936 19.2605C24.6772 19.044 25.8025 19.2668 26.7218 19.8799C27.6412 20.493 28.2793 21.4463 28.4959 22.5299C28.7124 23.6136 28.4896 24.7388 27.8765 25.6582" fill="#003478"/>
<path fill-rule="evenodd" clip-rule="evenodd" d="M21.1146 20.8024C20.5014 21.7217 19.5482 22.3599 18.4645 22.5764C17.3809 22.7929 16.2556 22.5701 15.3363 21.957C14.4169 21.3439 13.7788 20.3906 13.5622 19.307C13.3457 18.2233 13.5685 17.0981 14.1816 16.1787" fill="#C60C30"/>
<path d="M4.82367 15.2128L9.43994 8.29102L8.2863 7.52164L3.67003 14.4435L4.82367 15.2128Z" fill="black"/>
<path d="M8.28412 17.5195L12.9004 10.5977L11.7468 9.82828L7.13048 16.7501L8.28412 17.5195Z" fill="black"/>
<path d="M6.55414 16.3652L11.1704 9.44336L10.0168 8.67398L5.4005 15.5958L6.55414 16.3652Z" fill="black"/>
<path d="M34.4824 29.5807L36.5981 26.4082L35.4445 25.6388L33.3287 28.8113L34.4824 29.5807Z" fill="black"/>
<path d="M31.9824 33.3307L34.0981 30.1582L32.9445 29.3888L30.8287 32.5613L31.9824 33.3307Z" fill="black"/>
<path d="M36.2133 30.736L38.3291 27.5635L37.1755 26.7941L35.0597 29.9666L36.2133 30.736Z" fill="black"/>
<path d="M32.7529 28.4264L34.8687 25.2539L33.715 24.4845L31.5992 27.657L32.7529 28.4264Z" fill="black"/>
<path d="M30.2514 32.1764L32.3672 29.0039L31.2135 28.2345L29.0978 31.407L30.2514 32.1764Z" fill="black"/>
<path d="M33.7133 34.484L35.8291 31.3115L34.6755 30.5421L32.5597 33.7146L33.7133 34.484Z" fill="black"/>
<path d="M32.2877 13.0455L30.1719 9.87305L29.0182 10.6424L31.134 13.8149L32.2877 13.0455Z" fill="black"/>
<path d="M34.7877 16.7956L32.6719 13.623L31.5182 14.3924L33.634 17.5649L34.7877 16.7956Z" fill="black"/>
<path d="M38.2491 14.4879L36.1333 11.3154L34.9797 12.0848L37.0955 15.2573L38.2491 14.4879Z" fill="black"/>
<path d="M35.7476 10.7379L33.6318 7.56543L32.4782 8.33481L34.594 11.5073L35.7476 10.7379Z" fill="black"/>
<path d="M36.5186 15.6425L31.9023 8.7207L30.7487 9.49008L35.365 16.4119L36.5186 15.6425Z" fill="black"/>
<path d="M7.96087 30.0892L10.0767 33.2617L11.2303 32.4923L9.11451 29.3198L7.96087 30.0892Z" fill="black"/>
<path d="M5.46038 26.3392L7.57617 29.5117L8.72981 28.7423L6.61402 25.5698L5.46038 26.3392Z" fill="black"/>
<path d="M3.72943 27.4942L8.3457 34.416L9.49934 33.6466L4.88307 26.7248L3.72943 27.4942Z" fill="black"/>
<path d="M7.19086 25.1876L11.8071 32.1094L12.9608 31.34L8.3445 24.4182L7.19086 25.1876Z" fill="black"/>
</g>
</g>
<defs>
<clipPath id="clip0_7674_311010">
<rect width="42" height="42" rx="21" fill="white"/>
</clipPath>
</defs>
</svg>

<svg xmlns="http://www.w3.org/2000/svg" width="42" height="42" fill="none"><g clip-path="url(#a)"><mask id="b" width="42" height="42" x="0" y="0" maskUnits="userSpaceOnUse" style="mask-type:alpha"><circle cx="21" cy="21" r="21" fill="#D9D9D9"/></mask><g mask="url(#b)"><path fill="red" d="M52.5 0h-63v42h63V0Z"/><path fill="#fff" d="M17.063 7.875h7.875v9.188h9.187v7.875h-9.188v9.187h-7.875v-9.188H7.876v-7.875h9.188V7.876Z"/><path fill="#fff" d="M46-1H-4v43h50V-1Z"/><path fill="#C60C30" fill-rule="evenodd" d="M14.017 16.424a8.333 8.333 0 1 1 13.865 9.247" clip-rule="evenodd"/><path fill="#003478" fill-rule="evenodd" d="M27.97 25.558a8.333 8.333 0 1 1-13.866-9.247" clip-rule="evenodd"/><path fill="#003478" fill-rule="evenodd" d="M20.944 21.035a4.167 4.167 0 0 1 6.933 4.623" clip-rule="evenodd"/><path fill="#C60C30" fill-rule="evenodd" d="M21.115 20.802a4.167 4.167 0 0 1-6.933-4.623" clip-rule="evenodd"/><path fill="#000" d="M4.824 15.213 9.44 8.29l-1.154-.77-4.616 6.923 1.154.769ZM8.284 17.52l4.616-6.922-1.153-.77L7.13 16.75l1.154.77ZM6.554 16.365l4.616-6.922-1.153-.769L5.4 15.596l1.153.77ZM34.482 29.58l2.116-3.172-1.154-.77-2.115 3.173 1.153.77ZM31.982 33.33l2.116-3.172-1.154-.77-2.115 3.173 1.153.77ZM36.213 30.736l2.116-3.172-1.154-.77-2.115 3.173 1.153.769ZM32.753 28.426l2.116-3.172-1.154-.77-2.116 3.173 1.154.77ZM30.251 32.176l2.116-3.172-1.153-.77-2.116 3.173 1.153.77ZM33.713 34.484l2.116-3.173-1.154-.769-2.115 3.173 1.153.769ZM32.288 13.046l-2.116-3.173-1.154.77 2.116 3.172 1.154-.77ZM34.788 16.796l-2.116-3.173-1.154.77 2.116 3.172 1.154-.77ZM38.25 14.488l-2.117-3.173-1.153.77 2.116 3.172 1.153-.77ZM35.748 10.738l-2.116-3.173-1.154.77 2.116 3.172 1.154-.77ZM36.519 15.643 31.902 8.72l-1.153.77 4.616 6.92 1.154-.769ZM7.96 30.09l2.117 3.172 1.153-.77-2.115-3.172-1.154.77ZM5.46 26.34l2.116 3.172 1.154-.77-2.116-3.172-1.154.77ZM3.73 27.494l4.616 6.922 1.153-.77-4.616-6.921-1.154.77ZM7.19 25.188l4.617 6.921 1.154-.769-4.617-6.922-1.153.77Z"/></g></g><defs><clipPath id="a"><rect width="42" height="42" fill="#fff" rx="21"/></clipPath></defs></svg>
